img/logo-twitter-11.svg

<svg fill="none" height="25" viewBox="0 0 24 25" width="24" xmlns="http://www.w3.org/2000/svg" xmlns:xlink="http://www.w3.org/1999/xlink"><clipPath id="a"><path d="m0 .5h24v24h-24z"/></clipPath><g clip-path="url(#a)"><path d="m21.5873 7.59306c.0146.21.0146.41999.0146.63193 0 6.45771-4.9162 13.90551-13.90553 13.90551v-.0039c-2.65549.0039-5.25581-.7568-7.491292-2.191.386129.0465.774194.0697 1.163222.0707 2.20065.0019 4.33839-.7365 6.06968-2.0961-2.09129-.0397-3.92516-1.4033-4.56581-3.3939.73259.1413 1.48742.1122 2.20646-.0842-2.28-.4607-3.92033-2.4639-3.92033-4.79034v-.06193c.67936.37839 1.44.58837 2.21807.61157-2.14742-1.43512-2.809356-4.29189-1.51258-6.52544 2.48129 3.05322 6.14226 4.90935 10.07221 5.1058-.3938-1.69741.1442-3.47612 1.4139-4.66935 1.9684-1.85032 5.0642-1.75548 6.9145.21194 1.0945-.21581 2.1436-.61742 3.1036-1.18646-.3649 1.13129-1.1284 2.09226-2.1484 2.70291.9687-.1142 1.9152-.37355 2.8064-.76936-.6561.98323-1.4825 1.83968-2.4387 2.53162z" fill="#000"/></g></svg>

<svg width="24" height="25" viewBox="0 0 24 25" fill="none" xmlns="http://www.w3.org/2000/svg">
<g clip-path="url(#clip0_3422_4301)">
<path d="M21.5873 7.59306C21.6019 7.80306 21.6019 8.01305 21.6019 8.22499C21.6019 14.6827 16.6857 22.1305 7.69637 22.1305V22.1266C5.04088 22.1305 2.44056 21.3698 0.205078 19.9356C0.591207 19.9821 0.979272 20.0053 1.3683 20.0063C3.56895 20.0082 5.70669 19.2698 7.43798 17.9102C5.34669 17.8705 3.51282 16.5069 2.87217 14.5163C3.60476 14.6576 4.35959 14.6285 5.07863 14.4321C2.79863 13.9714 1.1583 11.9682 1.1583 9.64176V9.57983C1.83766 9.95822 2.5983 10.1682 3.37637 10.1914C1.22895 8.75628 0.567014 5.89951 1.86379 3.66596C4.34508 6.71918 8.00605 8.57531 11.936 8.77176C11.5422 7.07435 12.0802 5.29564 13.3499 4.10241C15.3183 2.25209 18.4141 2.34693 20.2644 4.31435C21.3589 4.09854 22.408 3.69693 23.368 3.12789C23.0031 4.25918 22.2396 5.22015 21.2196 5.8308C22.1883 5.7166 23.1348 5.45725 24.026 5.06144C23.3699 6.04467 22.5435 6.90112 21.5873 7.59306Z" fill="black"/>
</g>
<defs>
<clipPath id="clip0_3422_4301">
<rect width="24" height="24" fill="white" transform="translate(0 0.5)"/>
</clipPath>
</defs>
</svg>
